X: 135
T:The Rolling Hills of Bellvue
M:6/8
L:1/8
F:http://blackrosetheband.googlepages.com/ABCTUNES.ABC May 2009
C:Oliver Schroer
S:Celtic Dance
K:Dm
|:"Dm"D2A AGF|"C"E2G GFE|"Dm"FGF "C"EFE|"Dm"DFA d2e|\
"F"f2g afd|1 cAG "Dm"Azd|"F"cAG "Bm"FEF|AGG "C"GFE:|2 cAG "Dm"Ade| "Bm"fed "C"cAG|"Dm"ADD D2E||
|:"F"FGF dFc|FGF "C"AGE|"F"FGF dFc|"Dm"Add def|\
"F"FEF dFc|FEF "C"AGE|1 "Dm"D2A "C"AGE|"Bm"FDD D2E:|2 "Dm"DAA "C"AGE|"Dm"FDD D3||

